icons/fill-new-food-fork-knife.svg

<svg xmlns="http://www.w3.org/2000/svg" width="32px" height="32px" viewBox="0 0 32 32" version="1.1">
    <title>fill-new-food-fork-knife</title>
    <g id="fill-new-food-fork-knife" stroke-width="1" fill-rule="evenodd">
        <path d="M14,2 C14.5522847,2 15,2.44771525 15,3 L15,10 C15,12.4185387 13.2828356,14.4360122 11.0011864,14.8997409 L11,29 C11,29.5522847 10.5522847,30 10,30 C9.44771525,30 9,29.5522847 9,29 L8.99981203,14.8999437 C6.71766536,14.4366008 5,12.4188915 5,10 L5,3 C5,2.44771525 5.44771525,2 6,2 C6.55228475,2 7,2.44771525 7,3 L7,10 C7,11.3062521 7.8348501,12.4175144 9.00008893,12.8293257 L9,3 C9,2.44771525 9.44771525,2 10,2 C10.5522847,2 11,2.44771525 11,3 L11.0009007,12.8289758 C12.1656226,12.4168852 13,11.3058822 13,10 L13,3 C13,2.44771525 13.4477153,2 14,2 Z M20.5547002,2.16794971 C24.8737051,5.0472863 27,10.3630236 27,18 C27,18.5522847 26.5522847,19 26,19 L21,19 L21,29 C21,29.5128358 20.6139598,29.9355072 20.1166211,29.9932723 L20,30 C19.4477153,30 19,29.5522847 19,29 L19,3 C19,2.20130462 19.8901455,1.72491322 20.5547002,2.16794971 Z" id="&#24418;&#29366;" fill-rule="nonzero" />
    </g>
</svg>

<svg xmlns="http://www.w3.org/2000/svg" viewBox="0 0 32 32"><path fill="currentColor" d="M14 2a1 1 0 0 1 1 1v7a5.002 5.002 0 0 1-3.999 4.9L11 29a1 1 0 0 1-2 0V14.9A5.002 5.002 0 0 1 5 10V3a1 1 0 1 1 2 0v7c0 1.306.835 2.418 2 2.83V3a1 1 0 1 1 2 0v9.829A3.001 3.001 0 0 0 13 10V3a1 1 0 0 1 1-1m6.555.168C24.874 5.048 27 10.363 27 18a1 1 0 0 1-1 1h-5v10a1 1 0 0 1-.883.993L20 30a1 1 0 0 1-1-1V3a1 1 0 0 1 1.555-.832"/></svg>
